X:1
T:Title
%%score { ( 1 3 ) | ( 2 4 ) }
L:1/8
M:4/4
K:Bb
V:1 treble nm="Grand Piano"
V:3 treble 
V:2 bass 
V:4 bass 
V:1
 z4 z2[Q:1/4=100] [DF]2 | [Fd]2 [Fd][Fd] [Fd]2 [DB][DF] | G2 GG c3 [=EB] | A2 AA A2 Fc | %4
 [DB]6 [DF]2 | [Fd]2 [Fd][Fd] [Fd]2 [DB][DF] |[M:7/8] G2 G G c3 |[M:1/8] [=EB] | %8
[M:4/4] A2 AA A2 Fc |[M:3/4] [DB]6 |[M:1/4] [_AB]2 |[M:4/4] [Ge]2 [EG][FA] [GB] [GB]2 [EG] | %12
 [DF] [DF]2 [DB] [Fd]3 [Fd] | [Fc]2 [A,F][=B,FG] [CFA][CFA] [_B,=EG]2 | F-[CF-] [DF-]2 [EF]2 FF | %15
 [Fd]2 dd d2 ed | [Ec][EG] [FG]2 G2 G2 | F2 de dd c2 |[M:3/4] [DB]6 |] %19
V:2
 z4 z2 [B,,B,]2 | [B,,B,]2 [B,,B,][B,,B,] [B,,B,]2 [B,,F,][B,,B,] | %2
 [E,B,E]2 [E,B,E][E,B,E] [E,G,E]3 [C,C] | [F,CE]2 [F,CE][F,CE] [F,CE]2 [F,A,E][F,A,E] | %4
 [B,,B,]6 [B,,B,]2 | [B,,B,]2 [B,,B,][B,,B,] [B,,B,]2 [B,,F,][B,,B,] | %6
[M:7/8] [E,B,E]2 [E,B,E] [E,B,E] [E,G,E]3 |[M:1/8] [C,C] | %8
[M:4/4] [F,CE]2 [F,CE][F,CE] [F,CE]2 [F,A,E][F,A,E] |[M:3/4] [B,,B,]6 |[M:1/4] [B,D]2 | %11
[M:4/4] [E,B,]2 [E,B,][E,B,] [E,E] [E,E]2 [E,B,] | [B,,B,] [B,,B,]2 [B,,F,] [B,,B,]3 [B,,B,] | %13
 [C,A,]2 D,D, C,C, C,2 | z A, B,2 C2 .[F,A,E]2 | %15
 [B,,B,]2[K:treble] [B,F][_A,B,F] [G,=B,F]2 [G,B,G][G,F] | %16
 [C,G,][C,C] [D,=B,]2 [E,CE]2 [=E,B,_D]2 | [F,B,D]2 [F,B,F][F,CF] [F,B,F][F,B,F] [F,A,E]2 | %18
[M:3/4] [B,,B,]6 |] %19
V:3
 x8 | x8 | x8 | x8 | x8 | x8 |[M:7/8] x7 |[M:1/8] x |[M:4/4] x8 |[M:3/4] x6 |[M:1/4] x2 | %11
[M:4/4] x8 | x8 | x8 | .A,2 z2 z4 | x8 | x8 | x8 |[M:3/4] x6 |] %19
V:4
 x8 | x8 | x8 | x8 | x8 | x8 |[M:7/8] x7 |[M:1/8] x |[M:4/4] x8 |[M:3/4] x6 |[M:1/4] x2 | %11
[M:4/4] x8 | x8 | x8 | F,6 z2 | x2[K:treble] x6 | x8 | x8 |[M:3/4] x6 |] %19

